icon-themes/breeze_svg/cmd/lc_showbookview.svg

<svg viewBox="0 0 24 24" xmlns="http://www.w3.org/2000/svg"><path d="m7 4-4 4v1.40625 10.59375h1 7 1 1 7 1v-10.59375-1.40625l-4-4h-1-3-1-1-3zm1 1h3v14h-7v-10h4v-1zm5 0h3v3 1h4v10h-7z" fill="#4d4d4d"/></svg>

<svg xmlns="http://www.w3.org/2000/svg" viewBox="0 0 24 24">
 <path 
     style="fill:#4d4d4d" 
     d="M 7 4 L 3 8 L 3 9.40625 L 3 20 L 4 20 L 11 20 L 12 20 L 13 20 L 20 20 L 21 20 L 21 9.40625 L 21 8 L 17 4 L 16 4 L 13 4 L 12 4 L 11 4 L 8 4 L 7 4 z M 8 5 L 11 5 L 11 19 L 4 19 L 4 9 L 8 9 L 8 8 L 8 5 z M 13 5 L 16 5 L 16 8 L 16 9 L 20 9 L 20 19 L 13 19 L 13 5 z "
     />
 </svg>
